icons/openshift.svg

<!--
  - The MIT License (MIT)
  -
  - Copyright (c) 2015-2024 Elior "Mallowigi" Boukhobza
  -
  - Permission is hereby granted, free of charge, to any person obtaining a copy
  - of this software and associated documentation files (the "Software"), to deal
  - in the Software without restriction, including without limitation the rights
  - to use, copy, modify, merge, publish, distribute, sublicense, and/or sell
  - copies of the Software, and to permit persons to whom the Software is
  - furnished to do so, subject to the following conditions:
  -
  - The above copyright notice and this permission notice shall be included in all
  - copies or substantial portions of the Software.
  -
  - THE SOFTWARE IS PROVIDED "AS IS", WITHOUT WARRANTY OF ANY KIND, EXPRESS OR
  - IMPLIED, INCLUDING BUT NOT LIMITED TO THE WARRANTIES OF MERCHANTABILITY,
  - FITNESS FOR A PARTICULAR PURPOSE AND NONINFRINGEMENT. IN NO EVENT SHALL THE
  - AUTHORS OR COPYRIGHT HOLDERS BE LIABLE FOR ANY CLAIM, DAMAGES OR OTHER
  - LIABILITY, WHETHER IN AN ACTION OF CONTRACT, TORT OR OTHERWISE, ARISING FROM,
  - OUT OF OR IN CONNECTION WITH THE SOFTWARE OR THE USE OR OTHER DEALINGS IN THE
  - SOFTWARE.
  -
  -->

<svg  width="16px" height="16px" version="1.1" viewBox="0 0 24 24" xml:space="preserve"
     xmlns="http://www.w3.org/2000/svg" xmlns:xlink="http://www.w3.org/1999/xlink">
    <g fill="#c62828" data-iconColor="OpenShift">
        <path
            d="M20.5 8.1769C20.3103 7.78216 20.0876 7.4042 19.8341 7.04709L17.1053 8.04032C17.4191 8.36331 17.6889 8.72646 17.9074 9.12029L20.5 8.17656L20.5 8.1769ZM8.43661 11.1952L5.70679 12.1884C5.74318 12.625 5.81565 13.0578 5.92344 13.4824L8.51636 12.538C8.43035 12.096 8.40353 11.6445 8.43661 11.1955"
        />
      <path
          d="M14.4951 7.40397C15.0457 7.66239 15.5452 8.01812 15.9695 8.45403L18.6986 7.46046C17.9196 6.36574 16.8696 5.49209 15.6514 4.92503C11.7496 3.10504 7.09479 4.79909 5.2758 8.70026C4.70658 9.91778 4.46381 11.2624 4.57133 12.6021L7.30082 11.6089C7.34531 11.0022 7.49909 10.4086 7.75474 9.85666C8.93672 7.3219 11.9603 6.22199 14.4951 7.40364M17.4056 12.3908C17.3608 12.9979 17.2055 13.5918 16.9474 14.1433C15.7658 16.6784 12.7419 17.7783 10.2078 16.5966C9.6558 16.3396 9.15519 15.9844 8.73036 15.5482L6.00652 16.5388C6.78423 17.6344 7.83368 18.5086 9.05169 19.0756C12.9532 20.8946 17.607 19.2005 19.4263 15.299C19.9957 14.0824 20.238 12.7384 20.1295 11.3995L17.4056 12.3904L17.4056 12.3908Z"
      />
      <path
          d="M18.0769 9.05881L15.4836 10.0025C15.9703 10.8719 16.191 11.865 16.1183 12.8586L18.8418 11.8681C18.7639 10.8922 18.5045 9.93945 18.0769 9.05881M6.09325 13.4199L3.5 14.3646C3.73913 15.3137 4.15267 16.2101 4.71953 17.008L7.44271 16.0165C6.7489 15.3014 6.27986 14.3987 6.09358 13.4199"
      />
      <path
          d="M20.1049 7.45781C20.0193 7.31796 19.9291 7.18098 19.8344 7.04709L17.1056 8.04032C17.2252 8.16327 17.3359 8.29353 17.4412 8.42745L20.1049 7.45781ZM8.42598 11.7431C8.41933 11.5613 8.42232 11.3786 8.43628 11.1955L5.70645 12.1884C5.72074 12.3635 5.74267 12.5373 5.76893 12.7101L8.42598 11.7431Z"
      />
      <path
          d="M20.1292 11.3998L17.4056 12.3908C17.3761 12.789 17.2988 13.1823 17.1754 13.5621L20.1401 12.4815C20.1611 12.1193 20.1577 11.7577 20.1292 11.3998M6.00685 16.5395C6.21653 16.8349 6.44881 17.1164 6.70102 17.3825L9.66578 16.3012C9.32494 16.0883 9.01079 15.8354 8.73003 15.5479L6.00685 16.5395Z"
      />
    </g>
</svg>

<svg xmlns="http://www.w3.org/2000/svg" xml:space="preserve" viewBox="0 0 24 24"><g fill="#c62828" data-iconColor="OpenShift"><path d="M20.5 8.177a8 8 0 0 0-.666-1.13l-2.729.993c.314.323.584.686.802 1.08zM8.437 11.195l-2.73.993q.055.657.216 1.294l2.593-.944a5 5 0 0 1-.08-1.343"/><path d="M14.495 7.404c.55.258 1.05.614 1.475 1.05l2.729-.994a7.76 7.76 0 0 0-3.048-2.535C11.75 3.105 7.095 4.799 5.276 8.7a7.75 7.75 0 0 0-.705 3.902l2.73-.993c.044-.607.198-1.2.454-1.752a5.08 5.08 0 0 1 6.74-2.453m2.91 4.987a5 5 0 0 1-.458 1.752 5.077 5.077 0 0 1-6.74 2.454 5 5 0 0 1-1.477-1.049l-2.723.99a7.74 7.74 0 0 0 3.045 2.538c3.901 1.819 8.555.125 10.374-3.777.57-1.217.812-2.56.704-3.9z"/><path d="m18.077 9.059-2.593.944c.486.869.707 1.862.634 2.856l2.724-.99a7.9 7.9 0 0 0-.765-2.81m-11.984 4.36-2.593.946a7.9 7.9 0 0 0 1.22 2.643l2.723-.991a5.1 5.1 0 0 1-1.35-2.597m14.012-5.962a7 7 0 0 0-.27-.41l-2.73.992q.179.186.336.387zM8.426 11.743a5 5 0 0 1 .01-.548l-2.73.993q.023.263.063.522z"/><path d="m20.13 11.4-2.724.99q-.045.6-.23 1.172l2.964-1.08a8 8 0 0 0-.01-1.082M6.006 16.54q.316.442.694.843L9.666 16.3a5 5 0 0 1-.936-.753z"/></g></svg>
